public/logos/graphql.svg

<svg xmlns="http://www.w3.org/2000/svg" width="392" height="392" viewBox="0 0 392 392">
  <g fill="#E10098" transform="translate(21)">
    <polygon points="32.468 298.66 18.092 290.36 178.242 12.98 192.618 21.28"/>
    <polygon points="14.8 268.2 335.1 268.2 335.1 284.8 14.8 284.8"/>
    <path d="M181.348,370.026 L21.138,277.526 L29.438,263.15 L189.648,355.65 L181.348,370.026 Z M320.522,128.947 L160.312,36.447 L168.612,22.071 L328.822,114.571 L320.522,128.947 Z"/>
    <polygon points="29.482 128.883 21.182 114.508 181.392 22.008 189.692 36.384"/>
    <path d="M317.568,298.663 L157.418,21.283 L171.794,12.983 L331.944,290.363 L317.568,298.663 Z M27.5,103.5 L44.1,103.5 L44.1,288.5 L27.5,288.5 L27.5,103.5 Z M305.9,103.5 L322.5,103.5 L322.5,288.5 L305.9,288.5 L305.9,103.5 Z"/>
    <polygon points="178.522 363 171.272 350.442 310.612 269.992 317.862 282.549"/>
    <path d="M344.5,293.9 C334.9,310.6 313.5,316.3 296.8,306.7 C280.1,297.1 274.4,275.7 284,259 C293.6,242.3 315,236.6 331.7,246.2 C348.5,255.9 354.2,277.2 344.5,293.9 M65.9,133 C56.3,149.7 34.9,155.4 18.2,145.8 C1.5,136.2 -4.2,114.8 5.4,98.1 C15,81.4 36.4,75.7 53.1,85.3 C69.8,95 75.5,116.3 65.9,133 M5.5,293.9 C-4.1,277.2 1.6,255.9 18.3,246.2 C35,236.6 56.3,242.3 66,259 C75.6,275.7 69.9,297 53.2,306.7 C36.4,316.3 15.1,310.6 5.5,293.9 M284.1,133 C274.5,116.3 280.2,95 296.9,85.3 C313.6,75.7 334.9,81.4 344.6,98.1 C354.2,114.8 348.5,136.1 331.8,145.8 C315.1,155.4 293.7,149.7 284.1,133 M175,391.8 C155.7,391.8 140.1,376.2 140.1,356.9 C140.1,337.6 155.7,322 175,322 C194.3,322 209.9,337.6 209.9,356.9 C209.9,376.1 194.3,391.8 175,391.8 M175,70 C155.7,70 140.1,54.4 140.1,35.1 C140.1,15.8 155.7,0.2 175,0.2 C194.3,0.2 209.9,15.8 209.9,35.1 C209.9,54.4 194.3,70 175,70"/>
  </g>
</svg>

<svg xmlns="http://www.w3.org/2000/svg" viewBox="0 0 392 392"><g fill="#e10098" transform="translate(21)"><path d="m32.468 298.66l-14.378-8.3 160.15-277.38 14.38 8.3z"/><path d="m14.8 268.2h320.3v16.6h-320.3z"/><path d="m181.35 370.03l-160.21-92.5 8.3-14.376 160.21 92.5-8.3 14.376m139.17-241.08l-160.21-92.5 8.3-14.376 160.21 92.5-8.3 14.376"/><path d="m29.482 128.88l-8.302-14.37 160.21-92.5 8.3 14.37z"/><path d="m317.57 298.66l-160.15-277.38 14.376-8.3 160.15 277.38-14.376 8.3m-290.07-195.16h16.6v185h-16.6v-185m278.4 0h16.6v185h-16.6v-185"/><path d="m178.52 363l-7.25-12.56 139.34-80.45 7.25 12.56z"/><path d="m344.5 293.9c-9.6 16.7-31 22.4-47.7 12.8-16.7-9.6-22.4-31-12.8-47.7 9.6-16.7 31-22.4 47.7-12.8 16.8 9.7 22.5 31 12.8 47.7m-278.6-160.9c-9.6 16.7-31 22.4-47.7 12.8-16.7-9.6-22.4-31-12.8-47.7 9.6-16.7 31-22.4 47.7-12.8 16.7 9.7 22.4 31 12.8 47.7m-60.4 160.9c-9.6-16.7-3.9-38 12.8-47.7 16.7-9.6 38-3.9 47.7 12.8 9.6 16.7 3.9 38-12.8 47.7-16.8 9.6-38.1 3.9-47.7-12.8m278.6-160.9c-9.6-16.7-3.9-38 12.8-47.7 16.7-9.6 38-3.9 47.7 12.8 9.6 16.7 3.9 38-12.8 47.7-16.7 9.6-38.1 3.9-47.7-12.8m-109.1 258.8c-19.3 0-34.9-15.6-34.9-34.9 0-19.3 15.6-34.9 34.9-34.9 19.3 0 34.9 15.6 34.9 34.9 0 19.2-15.6 34.9-34.9 34.9m0-321.8c-19.3 0-34.9-15.6-34.9-34.9 0-19.3 15.6-34.9 34.9-34.9 19.3 0 34.9 15.6 34.9 34.9 0 19.3-15.6 34.9-34.9 34.9"/></g></svg>
